packages/kaspersky-hexa-ui-icons/src/iconsSVGs/28x20/FlagMm.svg

<svg xmlns="http://www.w3.org/2000/svg" width="28" height="20" fill="none" viewBox="0 0 28 20"><g clip-path="url(#a)"><rect width="28" height="20" fill="#fff" rx="2"/><mask id="b" width="28" height="20" x="0" y="0" maskUnits="userSpaceOnUse" style="mask-type:luminance"><rect width="28" height="20" fill="#fff" rx="2"/></mask><g fill-rule="evenodd" clip-rule="evenodd" mask="url(#b)"><path fill="#f13d4f" d="M0 20h28v-6.6667H0z"/><path fill="#4ac94b" d="M0 13.3333h28V6.6667H0z"/><path fill="#ffd043" d="M0 6.6667h28V0H0z"/><path fill="#fff" d="m14 12.34-3.5267 2.5141 1.3012-4.131-3.4808-2.5772 4.3309-.039L14 4l1.3754 4.1069 4.3309.039-3.4808 2.5772 1.3012 4.131z"/></g></g><defs><clipPath id="a"><path fill="#fff" d="M0 0h28v20H0z"/></clipPath></defs></svg>

<svg width="28" height="20" viewBox="0 0 28 20" fill="none" xmlns="http://www.w3.org/2000/svg">
<g clip-path="url(#clip0_5138_1492)">
<rect width="28" height="20" rx="2" fill="white"/>
<mask id="mask0_5138_1492" style="mask-type:luminance" maskUnits="userSpaceOnUse" x="0" y="0" width="28" height="20">
<rect width="28" height="20" rx="2" fill="white"/>
</mask>
<g mask="url(#mask0_5138_1492)">
<path fill-rule="evenodd" clip-rule="evenodd" d="M0 20H28V13.3333H0V20Z" fill="#F13D4F"/>
<path fill-rule="evenodd" clip-rule="evenodd" d="M0 13.3333H28V6.66667H0V13.3333Z" fill="#4AC94B"/>
<path fill-rule="evenodd" clip-rule="evenodd" d="M0 6.66667H28V0H0V6.66667Z" fill="#FFD043"/>
<path fill-rule="evenodd" clip-rule="evenodd" d="M14 12.34L10.4733 14.8541L11.7745 10.7231L8.29366 8.1459L12.6246 8.1069L14 4L15.3754 8.1069L19.7063 8.1459L16.2255 10.7231L17.5267 14.8541L14 12.34Z" fill="white"/>
</g>
</g>
<defs>
<clipPath id="clip0_5138_1492">
<rect width="28" height="20" fill="white"/>
</clipPath>
</defs>
</svg>
